X:1994
T:Boys of Bluehill, The
N:transcribed by Alan Ng
C:Traditional
R:hornpipe
S:as played by Alan Ng in Madison, Wisconsin
Z: id:ng-other-7 transcribed by Alan Ng agng@students.wisc.edu October 21, 1998
M:C|
E:7
K:D
dB|{d}BAFA D2FA|BA (3Bcd e2de|fagf egfe|dfed B2dB|{d}BAFA D2FA|BA Bd e2de| fagf ef{g}fe|d2 ~d2 d2:|*
E:7.5
|:fg|afdf a2gf|~g3a b2ag|fagf egfe|dfed B2dB|{d}BAFA D2FA|BA Bd e2de|fagf ef{g}fe|d2 ~d2 d2:|*


